!!!!SEGMENT: pl-kk--kk-i-7--109_gorczycki-grzegorz-gerwazy--ave-mundi-spes-maria.krn
!!!cenid: 16xx:948
!!!COM: Gorczycki, Grzegorz Gerwazy
!!!COM-rismID: pe30009207
!!!CDT: ~1666-1734/04/30
!!!CNT: Polish
!!!OTL: Ave mundi spes Maria
!!!PDT:
!!!AGN: Sacred
!!!YEC: Copyright 2022 Narodowy Instytut Fryderyka Chopina (https://polishscores.org)
!!!YEM: License CC-BY-4.0 (https://creativecommons.org/licenses/by/4.0)
!!!SMS-siglum: PL-Kk
!!!SMS-shelfmark: Kk.I.7
!!!SMS-shelfwork: 109 W
!!!SMS-variant:
!!!SMS-altvar:
!!!NIFC-rismSourceID: 300258077
!!!NIFC-rismChildID: 300258186
!!!NIFC-islandoraID: pl-kk:1956
!!!URL-pdf-islandora: https://repozytorium.nifc.pl/islandora/object/pl-kk%3A1956/datastream/PDF/view
!!!URL-scan: https://polish.musicsources.pl/pl/lokalizacje/galeria/rekopisy/6140 @EN{Scan on Polish Music Sources Website} @PL{Skany w portalu Dziedzictwo Muzyki Polskiej w otwartym dostępie}
!!!IIIF: https://repozytorium.nifc.pl/islandora/object/pl-kk%3A1956/datastream/IIIF/view
!!!ONB-nifc: UWAGA: C (skan 0081, s.55 ), A (0159, s.55), T (0246, s.55), B (0333, s.55). Następny utwór: Omnium sanctorum
!!!AIN: 1 alto 1 bass 1 soprn 1 tenor
!!!key: F
**kern	**text	**text	**text	**text	**text	**kern	**text	**text	**text	**text	**text	**kern	**text	**text	**text	**text	**text	**kern	**text	**text	**text	**text	**text
*part4	*part4	*part4	*part4	*part4	*part4	*part3	*part3	*part3	*part3	*part3	*part3	*part2	*part2	*part2	*part2	*part2	*part2	*part1	*part1	*part1	*part1	*part1	*part1
*staff4	*staff4	*staff4	*staff4	*staff4	*staff4	*staff3	*staff3	*staff3	*staff3	*staff3	*staff3	*staff2	*staff2	*staff2	*staff2	*staff2	*staff2	*staff1	*staff1	*staff1	*staff1	*staff1	*staff1
!	!	!	!	!	!	!	!LO:MO:null:mod=*v&colon;1	!LO:MO:null:mod=*v&colon;2	!LO:MO:null:mod=*v&colon;3	!LO:MO:null:mod=*v&colon;4	!LO:MO:null:mod=*v&colon;5	!	!LO:MO:null:mod=*v&colon;1	!LO:MO:null:mod=*v&colon;2	!LO:MO:null:mod=*v&colon;3	!LO:MO:null:mod=*v&colon;4	!LO:MO:null:mod=*v&colon;5	!	!LO:MO:null:mod=*v&colon;1	!LO:MO:null:mod=*v&colon;2	!LO:MO:null:mod=*v&colon;3	!LO:MO:null:mod=*v&colon;4	!LO:MO:null:mod=*v&colon;5
*	*	*	*	*	*	*	*null	*null	*null	*null	*null	*	*null	*null	*null	*null	*null	*	*null	*null	*null	*null	*null
*ICvox	*	*	*	*	*	*ICvox	*	*	*	*	*	*ICvox	*	*	*	*	*	*ICvox	*	*	*	*	*
*Ibass	*	*	*	*	*	*Itenor	*	*	*	*	*	*Ialto	*	*	*	*	*	*Isoprn	*	*	*	*	*
*I"BASSVS.	*	*	*	*	*	*I"TENOR.	*	*	*	*	*	*I"ALTVS.	*	*	*	*	*	*I"CANTVS.	*	*	*	*	*
*mI"Basso	*	*	*	*	*	*mI"Tenore	*	*	*	*	*	*mI"Alto	*	*	*	*	*	*mI"Soprano	*	*	*	*	*
*I'B	*	*	*	*	*	*I'T	*	*	*	*	*	*I'A	*	*	*	*	*	*I'S	*	*	*	*	*
*clefF4	*	*	*	*	*	*clefC4	*	*	*	*	*	*clefC3	*	*	*	*	*	*clefC1	*	*	*	*	*
*	*	*	*	*	*	*mclefGv2	*	*	*	*	*	*mclefG2	*	*	*	*	*	*mclefG2	*	*	*	*	*
*k[b-]	*	*	*	*	*	*k[b-]	*	*	*	*	*	*k[b-]	*	*	*	*	*	*k[b-]	*	*	*	*	*
*F:	*	*	*	*	*	*F:	*	*	*	*	*	*F:	*	*	*	*	*	*F:	*	*	*	*	*
*M3/2	*	*	*	*	*	*M3/2	*	*	*	*	*	*M3/2	*	*	*	*	*	*M3/2	*	*	*	*	*
=1	=1	=1	=1	=1	=1	=1	=1	=1	=1	=1	=1	=1	=1	=1	=1	=1	=1	=1	=1	=1	=1	=1	=1
*xywh-#333:7262,355,6413,1883	*	*	*	*	*	*xywh-#246:7250,368,6487,1820	*	*	*	*	*	*xywh-#159:7304,363,6490,1971	*	*	*	*	*	*xywh-#81:7088,377,6517,2015	*	*	*	*	*
!LO:TX:t=P:problem=przy kluczu BB- B-	!	!	!	!	!	!	!	!	!	!	!	!	!	!	!	!	!	!	!	!	!	!	!
!LO:TX:a:i:mod= :t=De B. V. Maria	!	!	!	!	!	!LO:TX:a:i:mod= :t=De B. V. Maria.	!	!	!	!	!	!LO:TX:a:i:mod= :t=De B. V. Maria	!	!	!	!	!	!LO:TX:a:i:mod= :t=De B. V. Maria.	!	!	!	!	!
00.r	.	.	.	.	.	2r	.	.	.	.	.	2r	.	.	.	.	.	2r	.	.	.	.	.
*	*	*	*	*	*	*	*	*	*	*	*	*2\right	*	*	*	*	*	*2\right	*	*	*	*	*
.	.	.	.	.	.	2F/	A-	San-	An-	Me	E-	2f\	A-	San-	An-	Me	E-	2a\	A-	San-	An-	Me	E-
*	*	*	*	*	*	*2\right	*	*	*	*	*	*	*	*	*	*	*	*	*	*	*	*	*
!	!	!	!	!	!	!	!	!	!	!	!LO:SIC:s=-ia	!	!	!	!	!	!LO:SIC:s=-ia	!	!	!	!	!	!LO:SIC:s=-ia
.	.	.	.	.	.	2c\	-ve	-cta	-ge-	ha-	-ja	2e\	-ve	-cta	-ge-	ha-	-ja	2g\	-ve	-cta	-ge-	ha-	-ja
=2	=2	=2	=2	=2	=2	=2	=2	=2	=2	=2	=2	=2	=2	=2	=2	=2	=2	=2	=2	=2	=2	=2	=2
!	!	!	!	!	!	!	!	!LO:SIC:s=pa-	!	!	!LO:SIC:s=ro-	!	!	!LO:SIC:s=pa-	!	!	!LO:SIC:s=ro-	!	!	!LO:SIC:s=pa-	!	!	!LO:SIC:s=ro-
.	.	.	.	.	.	2E/	mun-	Pa-	-lo-	-be-	Ro-	2g\	mun-	Pa-	-lo-	-be-	Ro-	2cc\	mun-	Pa-	-lo-	-be-	Ro-
.	.	.	.	.	.	1F	-di	-rens	-rum	-to	-sa	1f	-di	-rens	-rum	-to	-sa	1a	-di	-rens	-rum	-to	-sa
=3	=3	=3	=3	=3	=3	=3	=3	=3	=3	=3	=3	=3	=3	=3	=3	=3	=3	=3	=3	=3	=3	=3	=3
.	.	.	.	.	.	2r	.	.	.	.	.	2r	.	.	.	.	.	2r	.	.	.	.	.
!	!	!	!	!	!	!	!	!	!LO:SIC:s=im-	!	!	!	!	!	!LO:SIC:s=im-	!	!	!	!	!	!LO:SIC:s=im-	!	!
.	.	.	.	.	.	2A\	spes	Je-	Im-	ex-	si-	(4f\	spes	Je-	Im-	ex-	si-	(4a\	spes	Je-	Im-	ex-	si-
.	.	.	.	.	.	.	.	.	.	.	.	4a\)	.	.	.	.	.	4cc\)	.	.	.	.	.
.	.	.	.	.	.	2B-\	Ma-	-su	-pe-	-cu-	-ne	(4g\	Ma-	-su	-pe-	-cu-	-ne	(4b-\	Ma-	-su	-pe-	cu-	-ne
.	.	.	.	.	.	.	.	.	.	.	.	4f\)	.	.	.	.	.	4a\)	.	.	.	.	.
=4	=4	=4	=4	=4	=4	=4	=4	=4	=4	=4	=4	=4	=4	=4	=4	=4	=4	=4	=4	=4	=4	=4	=4
.	.	.	.	.	.	1c	-ri-	Chri-	-ra-	-sa-	spi-	(2f\	-ri-	Chri-	-ra-	sa-	spi-	(2a\	-ri-	Chri-	-ra-	-sa-	spi-
!	!	!	!	!	!	!	!	!	!	!	!	!LO:SIC:s=4e	!	!	!	!	!	!LO:SIC:s=4g	!	!	!	!	!
.	.	.	.	.	.	.	.	.	.	.	.	4e\)	.	.	.	.	.	4g/)	.	.	.	.	.
!	!	!	!	!	!	!	!	!	!	!	!	!LO:SIC:s=4d)	!	!	!	!	!	!LO:SIC:s=4f)	!	!	!	!	!
.	.	.	.	.	.	.	.	.	.	.	.	4d\	.	.	.	.	.	4f/	.	.	.	.	.
!	!	!	!	!	!	!	!	!	!	!LO:SIC:s=-tum	!	!	!LO:SIC:s=-a	!LO:SIC:s=-sti	!	!LO:SIC:s=-tum	!	!	!LO:SIC:s=-a	!LO:SIC:s=-sti	!LO:SIC:s=-trix	!LO:SIC:s=-tum	!LO:SIC:s=-na
.	.	.	.	.	.	2C/	-a	-sti	-trix	-tum,	-na	2e\	-a,	-sti,	-trix	-tum,	-na	2g/	-a,	-sti,	-trix,	-tum,	-na,
=5	=5	=5	=5	=5	=5	=5	=5	=5	=5	=5	=5	=5	=5	=5	=5	=5	=5	=5	=5	=5	=5	=5	=5
2r	.	.	.	.	.	2r	.	.	.	.	.	2r	.	.	.	.	.	2r	.	.	.	.	.
!	!LO:MO:null:mod=*v&colon;1	!LO:MO:null:mod=*v&colon;2	!LO:MO:null:mod=*v&colon;3	!LO:MO:null:mod=*v&colon;4	!LO:MO:null:mod=*v&colon;5	!	!	!	!	!	!	!	!	!	!	!	!	!	!	!	!	!	!
*	*null	*null	*null	*null	*null	*	*	*	*	*	*	*	*	*	*	*	*	*	*	*	*	*	*
2C/	A-	San-	An-	Me	E-	2G/	A-	San-	An-	Me	E-	2e\	A-	San-	An-	Me	E-	2cc\	A-	San-	An-	Me	E-
*2\right	*	*	*	*	*	*	*	*	*	*	*	*	*	*	*	*	*	*	*	*	*	*	*
!	!	!	!	!	!LO:SIC:s=-ia	!	!	!	!	!	!LO:SIC:s=-ia	!	!	!	!	!	!LO:SIC:s=-ia	!	!	!	!	!	!LO:SIC:s=-ia
2G\	-ve	-cta	-ge-	ha-	-ja	2G/	-ve	-cta	-ge-	ha-	-ja	2d\	-ve	-cta	-ge-	ha-	-ja	2bn\	-ve	-cta	-ge-	ha-	-ja
=6	=6	=6	=6	=6	=6	=6	=6	=6	=6	=6	=6	=6	=6	=6	=6	=6	=6	=6	=6	=6	=6	=6	=6
!	!	!LO:SIC:s=pa-	!	!	!LO:SIC:s=ro-	!	!	!LO:SIC:s=pa-	!	!	!LO:SIC:s=ro-	!	!	!LO:SIC:s=pa-	!	!	!LO:SIC:s=ro-	!	!	!LO:SIC:s=pa-	!	!	!LO:SIC:s=ro-
2BBn/	mun-	Pa-	-lo-	-be-	Ro-	2G/	mun-	Pa-	-lo-	-be-	Ro-	2g\	mun-	Pa-	-lo-	-be-	Ro-	2dd\	mun-	Pa-	-lo-	-be-	Ro-
1C	-di	-rens	-rum	-to	-sa	1G	-di	-rens	-rum	-to	-sa	1e	-di	-rens	-rum	-to	-sa	1cc	-di	-rens	-rum	-to	-sa
=7	=7	=7	=7	=7	=7	=7	=7	=7	=7	=7	=7	=7	=7	=7	=7	=7	=7	=7	=7	=7	=7	=7	=7
2r	.	.	.	.	.	2r	.	.	.	.	.	2r	.	.	.	.	.	2r	.	.	.	.	.
!	!	!	!LO:SIC:s=im-	!	!	!	!	!	!LO:SIC:s=im-	!	!	!	!	!	!LO:SIC:s=im-	!	!	!	!	!	!LO:SIC:s=im-	!	!
2E\	spes	Je-	Im-	ex-	si-	2G/	spes	Je-	Im-	ex-	si-	(4e\	spes	Je-	Im-	ex-	si-	(4cc\	spes	Je-	Im-	ex-	si-
.	.	.	.	.	.	.	.	.	.	.	.	4g\)	.	.	.	.	.	4ee\)	.	.	.	.	.
2F\	Ma-	-su	-pe-	-cu-	-ne	2A/	Ma-	-su	-pe-	-cu-	-ne	(4f\	Ma-	-su	-pe-	-cu-	-ne	(4dd\	Ma-	-su	-pe-	-cu-	ne
.	.	.	.	.	.	.	.	.	.	.	.	4e\)	.	.	.	.	.	4cc\)	.	.	.	.	.
=8	=8	=8	=8	=8	=8	=8	=8	=8	=8	=8	=8	=8	=8	=8	=8	=8	=8	=8	=8	=8	=8	=8	=8
!	!	!	!	!	!	!	!	!	!	!	!	!	!	!	!	!	!	!LO:SIC:s=(2cc	!	!	!	!	!
1G	-ri-	Chri-	-ra-	-sa-	spi-	1G	-ri-	Chri-	-ra-	-ſa-	spi-	(2e\	-ri-	Chri-	-ra-	-sa-	spi-	2cc\	-ri-	Chri-	-ra-	-sa-	spi-
!	!	!	!	!	!	!	!	!	!	!	!	!LO:SIC:s=4d	!	!	!	!	!	!	!	!	!	!	!
.	.	.	.	.	.	.	.	.	.	.	.	4d\)	.	.	.	.	.	4bn\	.	.	.	.	.
!	!	!	!	!	!	!	!	!	!	!	!	!LO:SIC:s=4c)	!	!	!	!	!	!LO:SIC:s=4a)	!	!	!	!	!
.	.	.	.	.	.	.	.	.	.	.	.	4c\	.	.	.	.	.	4a\	.	.	.	.	.
!	!LO:SIC:s=-a	!LO:SIC:s=-sti	!	!	!	!	!	!	!	!LO:SIC:s=-tum	!	!	!LO:SIC:s=-a	!LO:SIC:s=-sti	!	!	!	!	!	!LO:SIC:s=-sti	!LO:SIC:s=-trix	!	!LO:SIC:s=-na
2GG/	-a:	-sti,	-trix	-tum	-na	2G/	-a	-ſti	-trix	-tum,	-na	2d\	-a,	-sti,	-trix	-tum	-na	2b\	-a	-sti,	-trix,	-tum	-na,
*	*	*	*	*	*	*	*	*	*	*	*	*custos:d	*	*	*	*	*	*custos:b	*	*	*	*	*
!	!	!	!	!	!	!	!	!	!	!	!	!LO:LB:g=original	!	!	!	!	!	!LO:LB:g=original	!	!	!	!	!
=9	=9	=9	=9	=9	=9	=9	=9	=9	=9	=9	=9	=9	=9	=9	=9	=9	=9	=9	=9	=9	=9	=9	=9
*	*	*	*	*	*	*	*	*	*	*	*	*xywh-#159:7275,1973,6555,1653	*	*	*	*	*	*xywh-#81:7114,1878,6290,1605	*	*	*	*	*
2r	.	.	.	.	.	2r	.	.	.	.	.	2r	.	.	.	.	.	2r	.	.	.	.	.
!	!	!	!LO:SIC:s=pec-	!	!	!	!	!	!LO:SIC:s=pec-	!	!	!	!	!	!LO:SIC:s=pec-	!	!	!	!	!	!	!	!
2G\	a-	e-	Pec-	a-	pec-	2G/	a-	e-	Pec-	a-	pec-	2d\	a-	e-	Pec-	a-	pec-	2bn\	a-	e-	pec-	a-	pec-
2F\	-ve	-le-	-ca-	-pud	-ca-	2G/	-ve	-le-	-ca-	-pud	-ca-	2d\	-ve	-le-	-ca-	-pud	ca-	2b\	-ve	-le-	-ca-	-pud	-ca-
=10	=10	=10	=10	=10	=10	=10	=10	=10	=10	=10	=10	=10	=10	=10	=10	=10	=10	=10	=10	=10	=10	=10	=10
!LO:SIC:s=(4E	!	!	!	!	!	!LO:SIC:s=(4G	!	!	!	!	!	!LO:SIC:s=(4e	!	!	!	!	!	!LO:SIC:s=(4cc	!	!	!	!	!
4E\	mi-	-cta	-to-	Chri-	-to-	4G/	mi-	-cta	-to-	Chri-	-to-	4e\	mi-	-cta	-to-	Chri-	-to-	4cc\	mi-	-cta	-to-	Chri-	-to-
4D\	.	.	.	.	.	4F/	.	.	.	.	.	4f\	.	.	.	.	.	4dd\	.	.	.	.	.
!LO:SIC:s=2E)	!	!	!	!	!	!LO:SIC:s=2G)	!	!	!	!	!	!LO:SIC:s=2e)	!	!	!	!	!	!LO:SIC:s=2cc)	!	!	!	!	!
2E\	.	.	.	.	.	2G/	.	.	.	.	.	2e\	.	.	.	.	.	2cc\	.	.	.	.	.
2C/	-tis	so-	-rum	-stum	-rum	2G/	-tis	so-	-rum	-stum	-rum	2g\	-tis	so-	.	.	.	2ee\	-tis	so-	.	.	.
*	*	*	*	*	*	*custos:A	*	*	*	*	*	*	*	*	*	*	*	*	*	*	*	*	*
!	!	!	!	!	!	!LO:LB:g=original	!	!	!	!	!	!	!	!	!	!	!	!	!	!	!	!	!
=11	=11	=11	=11	=11	=11	=11	=11	=11	=11	=11	=11	=11	=11	=11	=11	=11	=11	=11	=11	=11	=11	=11	=11
*	*	*	*	*	*	*xywh-#246:7222,1714,6405,1752	*	*	*	*	*	*	*	*	*	*	*	*	*	*	*	*	*
!	!	!	!LO:SIC:s=con-	!LO:SIC:s=tu-	!	!	!	!	!LO:SIC:s=con-	!LO:SIC:s=tu-	!LO:SIC:s=me-	!]	!	!	!	!	!	!	!	!LO:SIC:s=-la	!	!	!
4F\	a-	-la	Con-	Tu-	me-	4A\	a-	-la	Con-	Tu-	Me-	1fT	a-	-la	-rum	-stum	-rum	1cc	a-	-la,	.	.	.
4E\	.	.	.	.	.	4G\	.	.	.	.	.	.	.	.	.	.	.	.	.	.	.	.	.
4F\	.	.	.	.	.	4A\	.	.	.	.	.	.	.	.	.	.	.	.	.	.	.	.	.
4G\	.	.	.	.	.	4B-\	.	.	.	.	.	.	.	.	.	.	.	.	.	.	.	.	.
!	!	!	!	!	!	!	!	!	!	!	!	!	!	!	!LO:SIC:s=con-	!LO:SIC:s=tu-	!	!	!	!	!	!	!
4A\	.	so-	.	.	.	4c\	.	.	.	.	.	(4f\	.	so-	Con-	Tu-	me-	2cc\	-ve	so-	-rum	-stum	-rum
4E\	.	.	.	.	.	4G\	.	.	.	.	.	4g\)	.	.	.	.	.	.	.	.	.	.	.
=12	=12	=12	=12	=12	=12	=12	=12	=12	=12	=12	=12	=12	=12	=12	=12	=12	=12	=12	=12	=12	=12	=12	=12
!	!	!	!	!	!	!	!	!	!	!	!	!	!	!	!	!	!	!	!	!	!LO:SIC:s=con-	!LO:SIC:s=tu-	!
2F\	-ve	.	.	.	.	2A/	-ve	.	.	.	.	2c\	-ve	.	.	-um	-di-	(2a\	a-	-la	Con-	Tu-	me-
!	!	!	!	!	!	!	!	!	!	!	!	!	!	!	!	!LO:SIC:s=tu-	!	!	!	!	!	!	!
2D/	a-	-la	-so-	.	.	2F/	a-	.	-so-	.	.	2d\	a-	-la	-so-	Tu-	-ci-	2bn\)	.	.	.	.	.
!	!	!	!	!	!	!	!	!	!	!	!	!	!	!	!	!LO:MO:null:mod=-um	!	!	!	!	!	!	!
2C/	.	fu-	.	-um	-di-	2G/	.	fu-	.	-um	-di-	2e\	.	.	-la-	.	.	2cc\	-ve	fu-	-so-	-um	-di-
*custos:a	*	*	*	*	*	*	*	*	*	*	*	*	*	*	*	*	*	*	*	*	*	*	*
!LO:LB:g=original	!	!	!	!	!	!	!	!	!	!	!	!	!	!	!	!	!	!	!	!	!	!	!
=13	=13	=13	=13	=13	=13	=13	=13	=13	=13	=13	=13	=13	=13	=13	=13	=13	=13	=13	=13	=13	=13	=13	=13
*xywh-#333:7303,1817,6320,1616	*	*	*	*	*	*	*	*	*	*	*	*	*	*	*	*	*	*	*	*	*	*	*
!	!	!	!	!LO:SIC:s=na-	!	!	!	!	!	!	!	!	!	!	!	!LO:SIC:s=na-	!	!LO:SIC:s=(1cc	!	!	!	!LO:SIC:s=na-	!
2A\	-ve	-i-	-la-	Na-	-ci-	2F/	-ve	-i-	-la-	na-	-ci-	4f\	-ve	fu-	.	-um	.	1cc	pi-	-i-	-la-	Na-	-ci-
.	.	.	.	.	.	.	.	.	.	.	.	4e\	.	.	.	.	.	.	.	.	.	.	.
!	!	!	!	!	!	!	!	!	!	!	!	!	!	!	!	!LO:MO:mod=.	!	!	!	!	!	!	!
2G\	pi-	.	.	.	.	1G	pi-	.	.	.	.	1d	pi-	-i-	.	Na-	.	.	.	.	.	.	.
!	!	!	!	!	!	!	!	!	!	!	!	!	!	!	!	!	!	!LO:SIC:s=2b)	!	!	!	!	!
2GG/	.	.	.	.	.	.	.	.	.	.	.	.	.	.	.	.	.	2bn\	.	.	.	.	.
=14	=14	=14	=14	=14	=14	=14	=14	=14	=14	=14	=14	=14	=14	=14	=14	=14	=14	=14	=14	=14	=14	=14	=14
!	!LO:SIC:s=-a	!	!LO:SIC:s=-trix	!LO:SIC:s=-tum	!	!	!LO:SIC:s=-a	!LO:SIC:s=-sti	!LO:SIC:s=-trix	!LO:SIC:s=-tum	!LO:SIC:s=-na	!	!LO:SIC:s=-a	!	!LO:SIC:s=-trix	!LO:SIC:s=-tum	!LO:SIC:s=-na	!	!LO:SIC:s=-a	!	!LO:SIC:s=-trix	!LO:SIC:s=-tum	!LO:SIC:s=-na
2C/	-a;	-sti	-trix,	-tum,	-na	2G,/	-a;	-sti;	-trix:	-tum:	-na:	2e,\	-a;	-sti	-trix;	-tum:	-na,	2cc,\	-a;	-sti	-trix;	-tum:	-na;
!	!	!	!	!	!	!	!	!LO:SIC:s=es-	!LO:SIC:s=con-	!LO:SIC:s=cu-	!LO:SIC:s=pro	!	!	!	!LO:SIC:s=con-	!LO:SIC:s=cu-	!LO:SIC:s=pro	!	!	!	!LO:SIC:s=con-	!LO:SIC:s=cu-	!LO:SIC:s=pro
2r	.	.	.	.	.	2c\	A-	Eſ-	Con-	Cu-	Pro	2e\	A-	eſ-	Con-	Cu-	Pro	2g/	A-	eſ-	Con-	Cu-	Pro
!	!	!	!	!	!	!LO:SIC:s=2B-	!	!	!	!LO:SIC:s=-ius	!	!	!	!	!	!LO:SIC:s=-ius	!	!	!	!	!	!LO:SIC:s=-ius	!
2r	.	.	.	.	.	2B-X\	-ve	-se	-so-	-jus	me	2e\	-ve	se	-so-	-jus	me	2g/	-ve	-se	-so-	-jus	me
=15	=15	=15	=15	=15	=15	=15	=15	=15	=15	=15	=15	=15	=15	=15	=15	=15	=15	=15	=15	=15	=15	=15	=15
!	!	!	!	!	!	!	!LO:SIC:s=cha-	!	!	!	!LO:SIC:s=De-	!	!LO:SIC:s=cha-	!	!	!	!LO:SIC:s=De-	!	!	!	!	!	!LO:SIC:s=De-
00.r	.	.	.	.	.	4A/	Cha-	Ma-	-la-	i-	DE-	4f\	Cha-	Ma-	-la-	i-	DE-	4a\	cha-	Ma-	-la-	i-	DE-
!	!	!	!	!	!	!	!	!	!	!	!	!	!	!	!	!	!	!LO:SIC:s=4b-	!	!	!	!	!
.	.	.	.	.	.	4G/	-ri-	.	.	.	.	4g\	-ri-	.	.	.	.	4b-X\	-ri-	.	.	.	.
.	.	.	.	.	.	2A/	-ta-	.	.	.	.	2f\	-ta-	.	.	.	.	2a\	-ta-	.	.	.	.
!	!	!	!	!	!	!	!	!	!	!	!LO:SIC:s=-um	!	!	!	!	!	!LO:SIC:s=-um	!	!	!	!	!	!
.	.	.	.	.	.	2F/	-te	-ter	-re	-ram	-UM	2a\	-te	-ter	-re	-ram	-UM	2cc\	-te	-ter	.	.	.
=16	=16	=16	=16	=16	=16	=16	=16	=16	=16	=16	=16	=16	=16	=16	=16	=16	=16	=16	=16	=16	=16	=16	=16
!	!	!	!	!	!	!LO:SIC:s=4B-	!	!	!	!	!	!	!	!	!	!	!	!	!	!	!	!	!LO:SIC:s=-um
.	.	.	.	.	.	(4B-\	ple-	si-	me-	per-	in-	4d\	ple-	si-	me	per-	in-	[1.f	ple-	si-	.	-ram	-UM
.	.	.	.	.	.	4A\	.	.	.	.	.	4c\	.	.	.	.	.	.	.	.	.	.	.
.	.	.	.	.	.	4B-\	.	.	.	.	.	4d\	.	.	.	.	.	.	.	.	.	.	.
!	!	!	!	!	!	!LO:SIC:s=4c	!	!	!	!	!	!	!	!	!	!	!	!	!	!	!	!	!
.	.	.	.	.	.	4c\)	.	.	.	.	.	4e\	.	.	.	.	.	.	.	.	.	.	.
!	!	!	!	!	!	!	!	!	!	!	!	!LO:SIC:s=4f	!	!	!	!	!	!	!	!	!	!	!
.	.	.	.	.	.	4d\	.	-ne	.	.	.	(4f\	-na	-ne	.	.	.	.	.	.	.	.	.
!	!	!	!	!	!	!	!	!	!	!	!	!LO:SIC:s=4c	!	!	!	!	!	!	!	!	!	!	!
.	.	.	.	.	.	4A\	.	.	.	.	.	4c\)	.	.	.	.	.	.	.	.	.	.	.
=17	=17	=17	=17	=17	=17	=17	=17	=17	=17	=17	=17	=17	=17	=17	=17	=17	=17	=17	=17	=17	=17	=17	=17
!	!	!	!	!	!	!	!	!	!	!	!LO:MO:mod=.	!	!	!	!	!	!	!	!	!	!	!	!
.	.	.	.	.	.	2B-\	-na	si-	.	.	-ter-	2d\	ple-	si-	.	.	.	2f/]	.	.	.	.	.
!	!	!	!	!	!	!	!	!	!	!	!LO:MO:mod=.	!LO:SIC:s=2e	!	!	!LO:MO:mod=.	!	!	!LO:SIC:s=2b-	!	!	!	!	!
.	.	.	.	.	.	2G/	ple-	.	.	.	-pel-	2en\	.	.	lu-	.	.	2b-X\	.	.	-re	per-	in-
!	!	!	!	!	!	!	!	!	!	!	!LO:MO:null:mod=-ter-	!	!	!	!LO:MO:null:mod=lu-	!	!	!	!	!	!	!	!
.	.	.	.	.	.	2F/	.	.	-lu-	-ti-	.	2f\	.	.	.	-ti-	-ter-	2a\	.	-ne	me	-ti-	-ter-
=18	=18	=18	=18	=18	=18	=18	=18	=18	=18	=18	=18	=18	=18	=18	=18	=18	=18	=18	=18	=18	=18	=18	=18
!	!	!	!	!	!	!LO:SIC:s=2B-	!	!	!	!	!LO:MO:null:mod=-pel-	!	!	!	!	!	!	!	!	!LO:SIC:s=vi-	!	!	!
.	.	.	.	.	.	2B-X\	.	-ne	-gen-	-me-	.	4g\	.	-ne	gen-	-me-	-pel-	(4b-\	.	Vi-	lu-	-me-	-pel-
.	.	.	.	.	.	.	.	.	.	.	.	4f\	.	.	.	.	.	4a\)	.	.	.	.	.
!	!	!	!	!	!	!	!	!	!	!	!	!	!	!LO:SIC:s=vi-	!	!	!	!	!	!	!	!	!
.	.	.	.	.	.	2c\	.	vi-	.	.	.	2f\	.	Vi-	.	.	.	1g	.	.	gen-	.	.
.	.	.	.	.	.	2C/	.	.	.	.	.	2e\	.	.	.	.	.	.	.	.	.	.	.
*	*	*	*	*	*	*	*	*	*	*	*	*custos:f	*	*	*	*	*	*custos:a	*	*	*	*	*
!	!	!	!	!	!	!	!	!	!	!	!	!LO:LB:g=original	!	!	!	!	!	!LO:LB:g=original	!	!	!	!	!
=19	=19	=19	=19	=19	=19	=19	=19	=19	=19	=19	=19	=19	=19	=19	=19	=19	=19	=19	=19	=19	=19	=19	=19
*	*	*	*	*	*	*	*	*	*	*	*	*xywh-#159:7319,3287,6519,1559	*	*	*	*	*	*xywh-#81:7157,3169,6360,1779	*	*	*	*	*
!	!	!	!	!	!	!	!	!LO:SIC:s=-ro	!	!LO:SIC:s=-sco	!LO:SIC:s=-la	!	!LO:SIC:s=-na	!	!LO:SIC:s=-tem	!LO:SIC:s=-sco	!LO:SIC:s=-la	!	!	!LO:SIC:s=-ro	!LO:SIC:s=-tem	!LO:SIC:s=-sco	!LO:SIC:s=-la
2r	.	.	.	.	.	2F,/	-na	-ro,	-tem	-sco,	-la,	2f,\	-na,	-ro	-tem,	-sco,	-la,	2a,\	-na	-ro,	-tem,	-sco,	-la,
!	!	!	!	!	!	!	!	!	!	!	!	!	!	!	!	!	!	!LO:SIC:s=(4a	!	!	!	!	!
2F\	Vir-	et	in	et	ut	2c\	Vir-	et	in	et	ut	2f\	Vir-	et	in	et	ut	4a\	Vir-	et	in	et	ut
!	!	!	!	!	!	!	!	!	!	!	!	!	!	!	!	!	!	!LO:SIC:s=4b)	!	!	!	!	!
.	.	.	.	.	.	.	.	.	.	.	.	.	.	.	.	.	.	4bn\	.	.	.	.	.
!	!	!	!	!	!	!LO:SIC:s=2e	!	!	!	!	!	!	!	!	!	!	!	!	!	!	!	!	!
2E\	-go	lac-	pec-	fu-	me	2en\	-go	lac-	pec-	fu-	me	2g\	-go	lac-	pec-	fu-	me	2cc#X\	-go	lac-	pec-	fu-	me
=20	=20	=20	=20	=20	=20	=20	=20	=20	=20	=20	=20	=20	=20	=20	=20	=20	=20	=20	=20	=20	=20	=20	=20
2D\	dul-	-ta-	-ca-	ro-	sal-	2f\	dul-	-ta-	-ca-	-ro-	sal-	2a\	dul-	-ta-	-ca-	-ro-	sal-	2dd\	dul-	-ta-	-ca-	-ro-	sal-
!	!	!	!	!	!	!LO:SIC:s=2e	!	!	!	!	!	!	!	!	!	!	!	!	!	!	!	!	!
2E\	-cis	-re	-tis	-rem	-vet	2en\	-cis	-re	-tis	-rem	-vet	2g\	-cis	-re	-tis	-rem	-vet	2cc#X,\	-cis	-re	-tis	-rem	-vet
!	!	!	!LO:SIC:s=iam	!	!LO:SIC:s=a	!	!	!	!LO:SIC:s=iam	!	!LO:SIC:s=a	!	!	!	!LO:SIC:s=iam	!	!LO:SIC:s=a	!	!	!	!LO:SIC:s=iam	!	!LO:SIC:s=a
2F\	et	mo-	jam	ex-	à	4d\	et	mo-	jam	ex-	à	2f\	et	mo-	jam	ex-	à	2dd\	et	mo-	jam	ex-	à
.	.	.	.	.	.	4c\	.	.	.	.	.	.	.	.	.	.	.	.	.	.	.	.	.
*	*	*	*	*	*	*custos:B	*	*	*	*	*	*	*	*	*	*	*	*	*	*	*	*	*
!	!	!	!	!	!	!LO:LB:g=original	!	!	!	!	!	!	!	!	!	!	!	!	!	!	!	!	!
=21	=21	=21	=21	=21	=21	=21	=21	=21	=21	=21	=21	=21	=21	=21	=21	=21	=21	=21	=21	=21	=21	=21	=21
*	*	*	*	*	*	*xywh-#246:7265,3018,6241,1743	*	*	*	*	*	*	*	*	*	*	*	*	*	*	*	*	*
2G\	se-	-do	fae-	-pa-	pro-	2B-\	se-	-do	fae-	-pa-	pro-	2e\	se-	-do	fae-	-pa-	pro-	2dd\	se-	-do	fae-	-pa-	pro-
2A\	-re-	mi-	-ten-	-ve-	-cel-	1A	-re-	mi-	-ten-	-ve-	-cel-	1et	-re-	mi-	-ten-	-ve-	-cel-	(2dd\	-re-	mi-	-ten-	-ve-	-cel-
2AA/	.	.	.	.	.	.	.	.	.	.	.	.	.	.	.	.	.	2cc#X\)	.	.	.	.	.
=22	=22	=22	=22	=22	=22	=22	=22	=22	=22	=22	=22	=22	=22	=22	=22	=22	=22	=22	=22	=22	=22	=22	=22
!	!LO:SIC:s=-na	!	!LO:SIC:s=-tem	!LO:SIC:s=-sco	!	!	!	!LO:SIC:s=-ro	!	!LO:SIC:s=-sco	!	!	!LO:SIC:s=-na	!LO:SIC:s=-ro	!LO:SIC:s=-tem	!LO:SIC:s=-sco	!	!	!	!LO:SIC:s=-ro	!LO:SIC:s=-tem	!LO:SIC:s=-sco	!LO:SIC:s=-la
2D\	-na.	-ro	-tem,	-sco,	-la	2A\	-na	-ro,	-tem	-sco,	-la	2d,\	-na,	-ro,	-tem,	-sco,	-la	2dd,\	-na	-ro,	-tem,	-sco,	-la,
2r	.	.	.	.	.	2r	.	.	.	.	.	2c\	Vir-	et	in	et	ut	2a\	Vir-	et	in	et	ut
!	!	!	!	!	!	!	!	!	!	!	!	!	!	!	!	!	!	!LO:SIC:s=2b-	!	!	!	!	!
2r	.	.	.	.	.	2r	.	.	.	.	.	2d\	-go	lac-	pec-	fu-	me	2b-X\	-go	lac-	pec-	fu-	me
=23	=23	=23	=23	=23	=23	=23	=23	=23	=23	=23	=23	=23	=23	=23	=23	=23	=23	=23	=23	=23	=23	=23	=23
2r	.	.	.	.	.	2r	.	.	.	.	.	2c\	dul-	-ta-	-ca-	-ro-	sal-	2a\	dul-	-ta-	-ca-	-ro-	sal-
2F\	Vir-	et	in	et	ut	2c\	Vir-	et	in	et	ut	2A/	-cis	-re	-tis	-rem	-vet	2f/	-cis	-re	-tis	-rem	-vet
2B-\	-go	lac-	pec-	fu-	me	2d\	-go	lac-	pec-	fu-	me	2r	.	.	.	.	.	2r	.	.	.	.	.
=24	=24	=24	=24	=24	=24	=24	=24	=24	=24	=24	=24	=24	=24	=24	=24	=24	=24	=24	=24	=24	=24	=24	=24
2.A\	dul-	-ta-	-ca-	-ro-	sal-	2.c\	dul-	-ta-	-ca-	-ro-	sal-	2r	.	.	.	.	.	2r	.	.	.	.	.
.	.	.	.	.	.	.	.	.	.	.	.	2r	.	.	.	.	.	2r	.	.	.	.	.
4G\	-cis	-re	-tis	-rem	-vet	4B-\	-cis	-re	-tis	-rem	-vet	.	.	.	.	.	.	.	.	.	.	.	.
!	!	!	!LO:SIC:s=iam	!	!LO:SIC:s=a	!	!	!	!LO:SIC:s=iam	!	!LO:SIC:s=a	!	!	!	!LO:SIC:s=iam	!	!LO:SIC:s=a	!	!	!	!LO:SIC:s=iam	!	!LO:SIC:s=a
2F\	et	mo-	jam	ex-	à	2A\	et	mo-	jam	ex-	à	2f\	et	mo-	jam	ex-	à	2cc\	et	mo-	jam	ex-	à
=25	=25	=25	=25	=25	=25	=25	=25	=25	=25	=25	=25	=25	=25	=25	=25	=25	=25	=25	=25	=25	=25	=25	=25
!	!	!	!	!	!	!	!	!	!	!	!	!	!	!	!	!	!	!LO:SIC:s=(4b-	!	!	!	!	!
2B-\	se-	-do	fae-	-pa-	pro-	2d\	se-	-do	fae-	-pa-	pro-	2f\	se-	-do	fae-	-pa-	pro-	4b-\	se-	-do	fae-	-pa-	pro-
!	!	!	!	!	!	!	!	!	!	!	!	!	!	!	!	!	!	!LO:SIC:s=4a)	!	!	!	!	!
.	.	.	.	.	.	.	.	.	.	.	.	.	.	.	.	.	.	4a\	.	.	.	.	.
2c\	-re-	mi-	-ten-	-ve-	-cel-	1c	-re-	mi-	-ten-	-ve-	-cel-	(2f\	-re-	mi-	-ten-	-ve-	-cel-	1g	-re-	mi-	-ten-	-ve-	cel-
2C/	.	.	.	.	.	.	.	.	.	.	.	2e\)	.	.	.	.	.	.	.	.	.	.	.
*custos:F	*	*	*	*	*	*	*	*	*	*	*	*	*	*	*	*	*	*	*	*	*	*	*
!LO:LB:g=original	!	!	!	!	!	!	!	!	!	!	!	!	!	!	!	!	!	!	!	!	!	!	!
=26	=26	=26	=26	=26	=26	=26	=26	=26	=26	=26	=26	=26	=26	=26	=26	=26	=26	=26	=26	=26	=26	=26	=26
*xywh-#333:7272,2898,6331,1739	*	*	*	*	*	*	*	*	*	*	*	*	*	*	*	*	*	*	*	*	*	*	*
!	!	!	!	!LO:SIC:s=-sco	!LO:SIC:s=-la	!	!	!LO:SIC:s=-ro	!	!LO:SIC:s=-sco	!LO:SIC:s=-la	!	!	!LO:SIC:s=-ro	!	!LO:SIC:s=-sco	!LO:SIC:s=-la	!	!	!	!	!LO:SIC:s=-sco	!
(4F\	na	-ro	-tem	-sco,	-la,	2c,\	-na	-ro,	-tem	-sco,	-la,	2f,\	na	-ro,	-tem	-sco,	-la,	(4a\	-na	-ro	-tem	-sco,	-la
4E\	.	.	.	.	.	.	.	.	.	.	.	.	.	.	.	.	.	4g\	.	.	.	.	.
!	!	!	!	!	!	!	!	!	!	!	!	!	!	!	!LO:SIC:s=iam	!	!	!	!	!	!	!	!
4F\	.	.	.	.	.	2c\	Vir-	et	in	et	ut	2f\	Vir-	et	jam	et	ut	4a\	.	.	.	.	.
4G\	.	.	.	.	.	.	.	.	.	.	.	.	.	.	.	.	.	4b-\	.	.	.	.	.
4A\	.	.	.	.	.	(4c\	-go	lac-	pec-	fu-	me	2f\	-go	lac-	fae-	fu-	me	4cc\	.	.	.	.	.
4B-\)	.	.	.	.	.	4d\)	.	.	.	.	.	.	.	.	.	.	.	4dd\)	.	.	.	.	.
=27	=27	=27	=27	=27	=27	=27	=27	=27	=27	=27	=27	=27	=27	=27	=27	=27	=27	=27	=27	=27	=27	=27	=27
!	!	!	!LO:SIC:s=iam	!	!LO:SIC:s=a	!	!	!	!	!	!	!	!	!	!	!	!	!	!	!	!	!	!
4c\	Vir-	mo-	jam	ex-	à	[<1.c	dul-	-ta-	-ca-	-ro-	sal-	4e\	dul-	-ta-	ten-	-ro-	sal-	1cc	Vir-	.	.	.	.
4d\	.	.	.	.	.	.	.	.	.	.	.	4f\	.	.	.	.	.	.	.	.	.	.	.
4c\	.	.	.	.	.	.	.	.	.	.	.	4e\	.	.	.	.	.	.	.	.	.	.	.
4B-\	.	.	.	.	.	.	.	.	.	.	.	4d\	.	.	.	.	.	.	.	.	.	.	.
!LO:SIC:s=4A	!	!	!	!	!	!	!	!	!	!	!	!	!	!	!	!	!	!	!	!	!LO:SIC:s=iam	!	!
(4A\	-go	-do	.	.	.	.	.	.	.	.	.	4c\	.	.	.	.	.	(4cc\	-go	mo-	jam	ex-	sal-
!LO:SIC:s=4G	!	!	!	!	!	!	!	!	!	!	!	!	!	!	!	!	!	!	!	!	!	!	!
4G\)	.	.	.	.	.	.	.	.	.	.	.	4e\	.	.	.	.	.	4b-\)	.	.	.	.	.
=28	=28	=28	=28	=28	=28	=28	=28	=28	=28	=28	=28	=28	=28	=28	=28	=28	=28	=28	=28	=28	=28	=28	=28
!	!	!	!	!	!	!	!	!	!	!	!	!	!	!	!	!	!	!LO:SIC:s=2a	!	!	!	!	!
2F\	dul-	mo-	.	.	.	2c\]	.	.	.	.	.	2f\	.	.	.	.	.	2a,\	dul-	-do	.	.	vet
!	!	!	!	!	!	!LO:SIC:s=2B-,	!	!	!	!	!	!	!	!	!	!	!	!	!	!	!	!	!LO:SIC:s=a
2G\	-cis	.	.	.	.	2B-\	-cis	-re	-tis	-rem	-vet	2e,\	-cis	-re	-tem	-rem	-vet	2b-\	-cis	mo-	.	.	à
!	!	!	!	!	!	!	!	!	!LO:SIC:s=iam	!	!LO:SIC:s=a	!	!	!	!LO:SIC:s=iam	!	!LO:SIC:s=a	!	!	!	!	!	!
2A\	et	.	fae-	.	pro-	2A\	et	mo-	jam	ex-	à	2f\	et	mo-	jam	ex-	à	2cc\	et	-do	fae-	-pa-	pro-
=29	=29	=29	=29	=29	=29	=29	=29	=29	=29	=29	=29	=29	=29	=29	=29	=29	=29	=29	=29	=29	=29	=29	=29
2B-\	se-	-do	-ten-	-pa-	-cel-	2d\	se-	-do	fae-	-pa-	pro-	2f\	se-	-do	fae-	-pa-	pro-	4b-\	se-	mi-	-ten-	-ve-	-cel-
.	.	.	.	.	.	.	.	.	.	.	.	.	.	.	.	.	.	4a\	.	.	.	.	.
2c\	-re-	mi-	.	-ve-	.	1c	-re-	mi-	-ten-	-ve-	-cel-	(2f\	-re-	mi-	-ten-	-ve-	-cel-	1g	-re-	.	.	.	.
2C/	.	.	.	.	.	.	.	.	.	.	.	2e\)	.	.	.	.	.	.	.	.	.	.	.
=30	=30	=30	=30	=30	=30	=30	=30	=30	=30	=30	=30	=30	=30	=30	=30	=30	=30	=30	=30	=30	=30	=30	=30
1.F	-na.	-ro.	-tem.	-sco.	-la.	1.c	-na.	-ro.	-tem.	-sco.	-la.	1.f	-na	-ro.	-tem.	-sco.	-la.	1.a	-na.	-ro.	-tem.	-sco.	-la.
==	==	==	==	==	==	==	==	==	==	==	==	==	==	==	==	==	==	==	==	==	==	==	==
*-	*-	*-	*-	*-	*-	*-	*-	*-	*-	*-	*-	*-	*-	*-	*-	*-	*-	*-	*-	*-	*-	*-	*-
!!!system-decoration: [*]
!!!RDF**kern: < = below
!!!filter-modern: shed -e "s/^(\d+[\/\\]right)/$1yy/I" | shed -e "s/^custos:/Xcustos:/I" | shed -e "s/TX(.*):t=P:/tx$1:t=P:/LG" | shed -k -e "s/([^a-gA-Gn#X-])[<>]/$1/g" | sic -sq | modori -m | autostem -r | tie -s | humtr -p
!!!ENC: Kamil Watkowski
!!!END: 2021-03-05
!!!EED: Andrzej Kubiczek
!!!EEV: 2024-01-04
!!!ENC-modern: Andrzej Kubiczek
!!!END-modern: 2024-01-04
!!!ENC-iiif: Lidia Bialucha
!!!END-iiif: 2022-09-16
